X:7
T:Muckiarse
T:Tell Me Ma
T:Oh Susannah
M:4/8
L:1/8
P:ABABABABCDCDAB
R:Reel
K:G
P:A
D2 G2 B2 BB | c2 c2 B3c | B2 A2 AGAB | A2 G2 G4 |
D2 G2 B2 BB | c2 c2 B3 c | B2 A2 AGAB | A2 G2 G4 |
P:B
|d2 de d2 B2 | c2 cB c2 A2 | B2 BcBA G2 | A2 F2 E2 D2 |
d2 de d2 B2 | c2 cB c4 | B2 G2 A2 AB | A2 G2 G4 |
P:C
|: B2d2 d2e2 | d2B2 G2A2 | B2B2 A2G2 | A6 G-A |
B2d2 d2e2 | d2B2 G2A2 | B2B2 A2A2 |G8 ||
P:D
|: c2c2 c4 | e2e2 e4 | d2d2 B2G2 | A6 G-A |
B2d2 d2e2 | d2B2 G2GA | B2B2 A2A2 |\
G6 G-A ||
